X:1
T:Pas de Six, I. Intrada
T:Pas de Six, I. Intrada
T:Swan Lake, Piano Arrangement for 3 hands
T:Hinci
C:Hinci
%%score { ( 1 5 ) | ( 2 4 ) | 3 }
L:1/8
Q:1/4=60
M:2/4
K:F
V:1 treble nm="Piano" snm="Pno."
V:5 treble 
V:2 bass 
V:4 bass 
V:3 bass 
V:1
"^Moderato assai." z4 | z2 z3/2!mf! c/ |: f>(g a/>)(b/c'/>)d'/ | (!>!e'f') .e'/.d'/.c' | %4
 (!>!c'=b) .d'/.c'/.a | (!>!a^g) .b/.a/.f | z (.f.f.f) | g/>(a/g/>)(f/ e2) | c>(d e/>)(f/g/>)a/ | %9
 (!>!c'b) .g.^f/.g/ | (!>!ag) .e.^d/.e/ | (!>!fe) c2- | c/>(=B/c/>)(B/ c/>)(B/c/>)(d/ |1 %13
 e/>)(f/e/>)(d/ c>)(c :|2 e/>)(f/e/>)(d/ c) z || %15
!f! !>!.[FAdf](f/4g/4a/4b/4 ^c'/4d'/4c'/4b/4a/) z/ | %16
 z/ .[^cfb]/.[deg]/ z/ z/ .[A=Bda]/.[Acea]/.[Adfa]/ | %17
!f! !>!.[FAdf](f/4g/4a/4b/4 ^c'/4d'/4c'/4b/4a/) z/ | %18
 z/ .[^cfb]/.[deg]/ z/ z/ .[A=Bda]/.[Acea]/.[Adfa]/ | %19
!f! !>!.[df_ad']!8va(!(f'/4e'/4f'/4g'/4 _a'/4b'/4a'/4g'/4f'/)!8va)! z/ | %20
 z/ .[FGd]/.[Gdfg]/ z/ z/ .[_EG_e]/.[F_A=B]/.[EGc]/ | %21
!f! !>!.[c_e_gc']!8va(!(_e'/4d'/4e'/4f'/4 _g'/4_a'/4g'/4f'/4e'/)!8va)! z/ | %22
 z/ .[_EFc]/.[Fc_ef]/ z/ z/ .[DFd]/.[E_GA]/.[DFB]/ | z/!mf! ([dd']/[_e_e']- [ee']/[cc']/)f- | %24
 (f/[Gg]/[^G^g]- [Gg]/[Aa]/[Ff]/[Bb]/) | z/ ([dd']/[ff']- [ff']/[gg']/[dd']) | %26
 z/ ([cc']/[_e_e']- [ee']/[ff']/[cc']) | z/ ([dd']/[_e_e']- [ee']/[cc']/)f- | %28
 (f/[Gg]/[^G^g]- [Gg]/[Aa]/[Ff]/[Bb]/) | z/ ([dd']/[ff']- [ff']/[gg']/[dd']) | %30
 z/ ([cc']/[_e_e']- [ee']/[ff']/[cc']) | z/ (^B/^c-) c/(A/d) | z/ (^B/^c-) c/(A/d) | %33
 z/ (B/=B-) B/(G/c) | z/ (B/=B-) B/(G/c) | z/ (G/B-) B/(F/A) | z/ (D/G) z/ (C/E) | z4 | %38
 z2 z3/2!mf! c/ |: f>(g a/>)(b/c'/>)d'/ | (!>!e'f') .e'/.d'/.c' | (!>!c'=b) .d'/.c'/.a | %42
 (!>!a^g) .b/.a/.f | z (.f.f.f) | g/>(a/g/>)(f/ e2) | c>(d e/>)(f/g/>)a/ | (!>!c'b) .g.^f/.g/ | %47
 (!>!ag) .e.^d/.e/ | (!>!fe) c2- | c/>(=B/c/>)(B/ c/>)(B/c/>)(d/ ||1 e/>)(f/e/>)(d/ c>)(c :|2 %51
 e/>)(f/e/>)(d/ c) z ||!ff! !>!.[f_d'f'](f'/4e'/4f'/4g'/4 _a')!mf! (F/4E/4F/4G/4) | %53
 (A/4B/4c/4d/4)(e/4f/4e/4d/4) c/[I:staff +1].C/.A,/.F,/ | %54
!ff![I:staff -1] !>!.[f_d'f'](f'/4e'/4f'/4g'/4 _a')!mf! (F/4E/4F/4G/4) | %55
 (A/4B/4c/4d/4)(e/4f/4e/4d/4) c/[I:staff +1].C/.A,/.F,/ | %56
!f![Q:1/4=65][I:staff -1] [gbg']2 [ac'a']2 | [gbg']2 [ac'a']2 | [gbg'][ac'a'] [gbg'][ac'a'] | %59
 [gbg'][ac'a'] [gbg'][ac'a'] | %60
!f!!<(! [FA]/4x/4[Ac]/4x/4[Bd]/4x/4[ce]/4 x/4 [df]/4x/4[eg]/4x/4[fa]/4x/4[gb]/4 x/4 | %61
 [^g=b]/4x/4[ac']/4x/4[bd']/4x/4[c'e']/4 x/4!<)!!ff! [fac'f'] !fermata!z |] %62
V:2
!mp! [F,,C,].D [F,A,=B,].C | [F,,C,].D [F,A,=B,].C |: [F,,C,].D [F,A,=B,].C | %3
 [F,,C,].D [F,A,=B,].C | [F,,C,].D [F,A,=B,].C | [F,,C,].D [F,A,=B,].C | [F,,C,].D [F,A,=B,].C | %7
 [G,,C,].D [G,B,=B,].C | [G,,C,].D [G,B,=B,].C | [G,,C,].D [G,B,=B,].C | [G,,C,].D [G,B,=B,].C | %11
 [G,,C,].B, [C,E,^F,].G, | [G,,C,].B, [C,E,^F,].G, |1 [G,,C,].B, [C,F,^G,].A, :|2 %14
 [G,,C,].B, [C,F,^G,].A, || .[D,,D,][I:staff -1]d/4e/4f/4g/4 a/4b/4a/4g/4f/!p![I:staff +1]D,/ | %16
 G,/ z/ z/ B,/ D z | .[D,,D,][I:staff -1]d/4e/4f/4g/4 a/4b/4a/4g/4f/!p![I:staff +1]D,/ | %18
 G,/ z/ z/ B,/ D z | %19
 .[C,F,]!8va(![I:staff -1]d'/4^c'/4d'/4e'/4 f'/4g'/4f'/4e'/4d'/!8va)!!p![I:staff +1]C/ | %20
 =B,/ z/ z/ G,/ C/ z/ z | %21
 .[B,,,B,,]!8va(![I:staff -1]c'/4=b/4c'/4d'/4 _e'/4f'/4e'/4d'/4c'/!8va)!!p![I:staff +1]B,/ | %22
 A,/ z/ z/ F,/ B,/ z/ z | z z/!mp! (G,/ ^G,>A,) | (_E>C ^C>D) | (D>C B,>=B,) | (C>B, ^G,>A,) | %27
 z z/ (G,/ ^G,>A,) | (_E>C ^C>D) | (D>C B,>=B,) | (C>B, ^G,>A,) | A,4 | A,4 | G,4 | G,4 | %35
[K:treble] (!>!_E>D) (!>!_D>C) |[K:bass] (!>!=B,>_B,) (!>!A,_A,/G,/) |!mp! [F,,C,].D [F,A,=B,].C | %38
 [F,,C,].D [F,A,=B,].C |: [F,,C,].D [F,A,=B,].C | [F,,C,].D [F,A,=B,].C | [F,,C,].D [F,A,=B,].C | %42
 [F,,C,].D [F,A,=B,].C | [F,,C,].D [F,A,=B,].C | [G,,C,].D [G,B,=B,].C | [G,,C,].D [G,B,=B,].C | %46
 [G,,C,].D [G,B,=B,].C | [G,,C,].D [G,B,=B,].C | [G,,C,].B, [C,E,^F,].G, | %49
 [G,,C,].B, [C,E,^F,].G, ||1 [G,,C,].B, [C,F,^G,].A, :|2 [G,,C,].B, [C,F,^G,].A, || %52
 .[_D,,_D,][I:staff -1]_d'/4c'/4d'/4e'/4 f' _D/4C/4D/4E/4 | %53
 F/4G/4A/4B/4c/4d/4c/4B/4 A/[I:staff +1].C,/.A,,/.F,,/ | %54
 .[_D,,_D,][I:staff -1]_d'/4c'/4d'/4e'/4 f' _D/4C/4D/4E/4 | %55
 F/4G/4A/4B/4c/4d/4c/4B/4 A/[I:staff +1].C,/.A,,/.F,,/ | [_D,_D]2 [F,,F,]2 | [_D,_D]2 [F,,F,]2 | %58
 [_D,_D][F,,F,] [D,D][F,,F,] | [_D,_D][F,,F,] [D,D][F,,F,] | %60
[K:treble] x/4[I:staff -1] [FA]/4x/4[Ac]/4x/4[Bd]/4x/4[ce]/4 x/4 [df]/4x/4[eg]/4x/4[fa]/4x/4[gb]/4 | %61
[I:staff +1] x/4[I:staff -1] [^g=b]/4x/4[ac']/4x/4[bd']/4x/4[c'e']/4[I:staff +1][K:bass] [F,,F,] !fermata!z |] %62
V:3
 z4 | z4 |: z4 | z4 | z4 | z4 | z4 | z4 | z4 | z4 | z4 | z4 | z4 |1 z4 :|2 z4 || .[F,A,D] z z2 | %16
 z4 | .[F,A,D] z z2 | z4 | [DF_A] z z2 | z4 | .[C_E_G] z z2 | z4 | z4 | z4 | z4 | z4 | z4 | z4 | %29
 z4 | z4 | z4 | z4 | z4 | z4 | z4 | z4 | [F,A,]/C/ !>!F3 | [F,A,]/C/ !>!F3 |: [F,A,]/C/ [F,F]3 | %40
 [F,A,]/C/ [F,F]3 | [F,A,]/C/ [F,F]3 | [F,A,]/C/ [F,F]3 | [F,A,]/C/ [F,F]3 | [G,B,]/C/ [E,E]3 | %45
 [G,B,]/C/ [E,E]3 | [G,B,]/C/ [E,E]3 | [G,B,]/C/ [E,E]3 | [G,B,]/C/ [E,E]3 | [G,B,]/C/ [E,E]3 ||1 %50
 [F,A,]/C/ [F,F]3 :|2 [F,A,]/C/ [F,F]3 ||[K:treble] .[_A,F_A] z z2 | .[F,A,C] z z2 | %54
 .[_A,F_A] z z2 | .[F,A,C] z z2 | [B,GB][F,F] [CAc][F,F] | [B,GB][F,F] [CAc][F,F] | %58
 [B,FGB][CFAc] [B,FGB][CFAc] | [B,FGB][CFAc] [B,FGB][CFAc] | z4 | z2 [FAc] !fermata!z |] %62
V:4
 x4 | x4 |: x4 | x4 | x4 | x4 | x4 | x4 | x4 | x4 | x4 | x4 | x4 |1 x4 :|2 x4 || x4 | x4 | x4 | %18
 x4 | x!8va(! x5/2!8va)! x/ | x4 | x!8va(! x5/2!8va)! x/ | x4 | B,,4- | B,,4 | (_A,2 G,2) | %26
 (_G,2 F,2) | B,,4- | B,,4 | (_A,2 G,2) | (_G,2 F,2) | (G,2 D,2) | (G,2 D,2) | (F,2 C,2) | %34
 (F,2 C,2) |[K:treble] x4 |[K:bass] x4 | x4 | x4 |: x4 | x4 | x4 | x4 | x4 | x4 | x4 | x4 | x4 | %48
 x4 | x4 ||1 x4 :|2 x4 || x4 | x4 | x4 | x4 | x4 | x4 | x4 | x4 |[K:treble] x4 | x2[K:bass] x2 |] %62
V:5
 x4 | x4 |: x4 | x4 | x4 | x4 | x4 | x4 | x4 | x4 | x4 | x4 | x4 |1 x4 :|2 x4 || x4 | x4 | x4 | %18
 x4 | x!8va(! x5/2!8va)! x/ | x4 | x!8va(! x5/2!8va)! x/ | x4 | x4 | x4 | x4 | x4 | x4 | x4 | x4 | %30
 x4 | (^D>E) (F>^F) | (^D>E) (F>^F) | (^C>D) (^D>E) | (^C>D) (^D>E) | x4 | x4 | x4 | x4 |: x4 | %40
 x4 | x4 | x4 | x4 | x4 | x4 | x4 | x4 | x4 | x4 ||1 x4 :|2 x4 || x4 | x4 | x4 | x4 | x4 | x4 | %58
 x4 | x4 | x4 | x4 |] %62

